src/svg/11-flags/flag-eg.svg

<?xml version="1.0" encoding="UTF-8" standalone="no"?>
<svg width="640px" height="480px" viewBox="0 0 640 480" version="1.1" xmlns="http://www.w3.org/2000/svg" xmlns:xlink="http://www.w3.org/1999/xlink">
    <g stroke="none" stroke-width="1" fill="none" fill-rule="evenodd">
        <rect fill="#000000" x="0" y="0" width="640" height="480"></rect>
        <rect fill="#FFFFFF" x="0" y="0" width="640" height="320"></rect>
        <rect fill="#CE1126" x="0" y="0" width="640" height="160"></rect>
        <path d="M320.1396,316 C303.3896,316 288.3716,314.586 279.9676,312.217 C275.8316,311.46 275.5986,309.251 275.5856,306.839 C273.6206,305.97 273.1966,304.233 272.8806,302.943 C272.6346,301.939 272.4786,301.504 272.1376,301.351 C271.9586,301.342 271.7696,301.312 271.5726,301.258 L266.9946,300.011 L271.7396,300.011 C271.9496,300.011 272.1396,300.032 272.3106,300.071 C272.9246,300.015 273.4266,299.411 274.1226,298.512 C274.9386,297.459 275.9286,296.18 277.5356,296.18 L277.5406,296.18 C277.5676,295.924 277.6096,295.678 277.6666,295.44 L277.5716,295.25 C276.8216,293.749 276.9806,291.685 277.9676,290.112 C278.8066,288.775 280.1306,287.992 281.6276,287.936 C282.4956,287.281 283.5576,287.015 284.5156,287.226 C285.5946,287.591 286.6966,287.935 287.8096,288.254 L292.4806,271.699 L292.4706,271.663 L292.4986,271.634 L293.5136,268.038 L291.4836,269.682 L274.3686,285.211 L272.3056,287.327 L272.3176,287.071 L271.8076,287.533 L271.8026,287.659 L264.0876,294.604 L264.0896,294.548 L263.9996,294.63 L267.9846,200.699 C268.1766,195.919 269.7176,192.696 272.5666,191.12 C278.1746,188.016 287.0006,192.39 290.5356,194.414 C295.0826,197.323 300.1746,198.801 305.7646,198.85 C307.6346,196.172 310.2556,191.948 311.5316,187.741 C313.6236,180.713 313.5236,175.375 312.3446,173.737 C311.4026,172.372 310.4696,171.496 309.5636,171.121 C308.6386,170.771 307.7196,170.959 306.7726,171.705 L305.1616,172.975 L305.5376,171.771 C305.1066,171.45 305.0416,170.8 305.0196,170.569 C304.8906,169.263 305.3286,166.473 306.6606,165.561 C307.9336,164.67 310.2826,164.527 313.6326,165.137 C314.1286,165.223 314.6416,165.325 315.1646,165.44 C315.2256,165.235 315.3296,165.019 315.5006,164.82 C315.8816,164.378 316.4686,164.166 317.2446,164.167 C317.2986,164.167 317.3726,164.167 317.4486,164.171 C321.0146,164.341 326.2966,165.824 328.0296,167.556 C328.4886,168.016 328.9226,168.705 329.3576,169.663 L329.7656,170.561 L329.6486,170.561 C330.4596,173.044 330.7846,176.599 330.6146,181.149 C330.3026,187.759 332.1566,195.225 334.2766,198.914 C339.9246,198.903 345.0856,197.407 349.7156,194.431 C354.1636,191.905 362.3736,188.144 367.7346,191.122 C370.5686,192.697 372.1026,195.919 372.2936,200.7 L376.2806,294.645 L375.8486,294.243 L375.0756,293.598 L368.4756,287.658 L368.4646,287.386 L367.9526,286.909 L367.9706,287.323 L363.8546,283.104 L359.1586,278.745 L359.1706,279.02 L351.3816,271.525 L351.3926,271.784 L346.7666,268.039 L347.8086,271.663 L347.7986,271.698 L352.4666,288.244 C353.5486,287.93 354.6036,287.595 355.6116,287.246 C356.6296,287.019 357.7016,287.281 358.5686,287.934 C360.0836,287.964 361.4276,288.732 362.2856,290.07 C363.2966,291.65 363.4666,293.731 362.7076,295.25 L362.6126,295.441 C362.6696,295.678 362.7116,295.924 362.7386,296.18 L362.7436,296.18 C364.3516,296.18 365.3406,297.458 366.1566,298.512 C366.8526,299.411 367.3546,300.015 367.9686,300.071 C368.1406,300.032 368.3296,300.011 368.5396,300.011 L373.2856,300.011 L368.7066,301.259 C368.5096,301.312 368.3216,301.342 368.1416,301.351 C367.8006,301.504 367.6446,301.939 367.3986,302.943 C367.0826,304.234 366.6586,305.97 364.6946,306.839 C364.6806,309.249 364.4526,311.457 360.4186,312.229 C351.9126,314.586 336.8366,316 320.1396,316" fill="#BE932D"></path>
    </g>
</svg>

<svg xmlns="http://www.w3.org/2000/svg" width="640" height="480"><g fill="none" fill-rule="evenodd"><path fill="#000" d="M0 0h640v480H0z"/><path fill="#FFF" d="M0 0h640v320H0z"/><path fill="#CE1126" d="M0 0h640v160H0z"/><path fill="#BE932D" d="M320.14 316c-16.75 0-31.768-1.414-40.172-3.783-4.136-.757-4.37-2.966-4.382-5.378-1.965-.87-2.39-2.61-2.705-3.9-.24-1.01-.4-1.44-.74-1.59-.18-.01-.37-.04-.56-.1L267 300h4.75c.21 0 .4.022.57.06.616-.055 1.118-.66 1.814-1.558.816-1.054 1.806-2.333 3.413-2.333h.007c.026-.254.07-.5.125-.74l-.096-.19c-.75-1.5-.59-3.563.397-5.136.84-1.337 2.166-2.12 3.66-2.176.87-.655 1.93-.92 2.89-.71 1.08.365 2.18.71 3.295 1.03l4.67-16.557-.01-.037.03-.03 1.013-3.596-2.03 1.642-17.116 15.53-2.063 2.113.01-.255-.51.465-.005.124-7.715 6.944v-.056l-.09.08 3.988-93.93c.192-4.78 1.733-8.004 4.582-9.58 5.606-3.104 14.432 1.27 17.97 3.294 4.544 2.91 9.636 4.39 15.226 4.438 1.87-2.68 4.49-6.9 5.77-11.11 2.093-7.03 1.993-12.367.814-14.005-.942-1.366-1.875-2.24-2.78-2.617-.926-.35-1.845-.16-2.792.585l-1.61 1.27.376-1.204c-.43-.32-.498-.97-.52-1.2-.13-1.305.31-4.095 1.64-5.01 1.274-.89 3.623-1.03 6.973-.42.496.084 1.01.186 1.53.3.06-.204.167-.42.338-.62.384-.44.97-.653 1.747-.65h.205c3.566.17 8.85 1.655 10.58 3.387.46.46.894 1.15 1.33 2.106l.407.9h-.117c.81 2.484 1.137 6.04.967 10.59-.31 6.61 1.544 14.075 3.664 17.764 5.65-.01 10.81-1.507 15.44-4.483 4.45-2.526 12.66-6.287 18.02-3.31 2.836 1.576 4.37 4.8 4.56 9.58l3.988 93.945-.43-.404-.772-.644-6.6-5.94-.01-.273-.513-.474.02.41-4.114-4.22-4.696-4.357.01.274-7.787-7.496.01.26-4.623-3.75 1.04 3.625-.01.032 4.666 16.546c1.08-.315 2.137-.65 3.145-1 1.02-.23 2.09.034 2.96.687 1.51.03 2.858.797 3.716 2.135 1.01 1.58 1.18 3.66.422 5.18l-.095.19c.06.24.1.484.13.74h.004c1.61 0 2.6 1.28 3.415 2.332.694.9 1.196 1.503 1.81 1.56.17-.04.36-.06.57-.06h4.744l-4.58 1.247c-.195.05-.383.08-.563.09-.34.154-.494.59-.74 1.593-.317 1.29-.74 3.027-2.705 3.896-.013 2.41-.24 4.62-4.275 5.39-8.51 2.354-23.586 3.77-40.28 3.77"/></g></svg>
